src/icons/playwright.svg

<svg width="16" height="16" viewBox="0 0 16 16" fill="none" xmlns="http://www.w3.org/2000/svg">
<path d="M5.4581 8.86199C4.9421 9.00899 4.6041 9.26499 4.3811 9.52199C4.5951 9.33499 4.8811 9.16299 5.2661 9.05399C5.6601 8.94199 5.9961 8.94399 6.2751 8.99699V8.77899C5.99997 8.75514 5.72281 8.78329 5.4581 8.86199ZM4.3581 7.03499L2.4441 7.53899C2.4441 7.53899 2.4781 7.58899 2.5441 7.65499L4.1661 7.22699C4.1661 7.22699 4.1431 7.52299 3.9431 7.78799C4.3211 7.50199 4.3581 7.03499 4.3581 7.03499ZM5.9601 11.534C3.2661 12.26 1.8411 9.13799 1.4101 7.51699C1.2101 6.76899 1.1231 6.20299 1.1001 5.83699C1.09877 5.80366 1.0991 5.77029 1.1011 5.73699C0.961101 5.74699 0.895101 5.81899 0.908101 6.02899C0.932101 6.39399 1.0181 6.96099 1.2181 7.70899C1.6491 9.32899 3.0751 12.451 5.7681 11.726C6.29101 11.5942 6.7634 11.311 7.1261 10.912C6.79263 11.2094 6.39283 11.4227 5.9601 11.534ZM6.4661 5.12399V5.31599H7.5231C7.50177 5.24933 7.4801 5.18566 7.4581 5.12499L6.4661 5.12399Z" fill="#343944"/>
<path d="M7.75997 6.703C8.23397 6.838 8.48597 7.171 8.61897 7.466L9.14897 7.616C9.14897 7.616 9.07497 6.586 8.14197 6.32C7.26897 6.072 6.73197 6.805 6.66597 6.9C6.91997 6.719 7.29097 6.57 7.75797 6.703M11.975 7.471C11.101 7.221 10.564 7.957 10.499 8.051C10.754 7.869 11.124 7.721 11.592 7.854C12.066 7.99 12.317 8.322 12.45 8.617L12.98 8.768C12.98 8.768 12.907 7.736 11.975 7.471ZM11.448 10.191L7.04397 8.96C7.04397 8.96 7.09197 9.201 7.27397 9.515L10.986 10.552C11.291 10.375 11.452 10.192 11.452 10.192M8.39697 12.845C4.90697 11.909 5.32897 7.463 5.89297 5.355C6.12597 4.487 6.36497 3.842 6.56297 3.409C6.44497 3.385 6.34697 3.447 6.24997 3.644C6.03997 4.071 5.76997 4.766 5.50997 5.739C4.94497 7.846 4.52297 12.292 8.01297 13.229C9.65797 13.669 10.94 12.999 11.895 11.947C10.988 12.769 9.83097 13.229 8.39697 12.845Z" fill="#343944"/>
<path d="M6.4659 10.492V9.59401L3.9729 10.301C3.9729 10.301 4.1579 9.23101 5.4579 8.86201C5.8519 8.75001 6.1879 8.75201 6.4659 8.80501V5.12501H7.7149C7.61148 4.79365 7.48517 4.46987 7.3369 4.15601C7.1539 3.78401 6.9669 4.03101 6.5419 4.38601C6.2419 4.63601 5.4859 5.17001 4.3469 5.47701C3.2069 5.78401 2.2869 5.70301 1.9029 5.63701C1.3579 5.54201 1.0729 5.42301 1.0999 5.83701C1.1229 6.20201 1.2099 6.76901 1.4099 7.51701C1.8409 9.13701 3.2669 12.259 5.9599 11.534C6.6639 11.344 7.1599 10.969 7.5049 10.491L6.4659 10.492ZM2.4429 7.53901L4.3579 7.03501C4.3579 7.03501 4.3019 7.77101 3.5839 7.96101C2.8659 8.15001 2.4429 7.53901 2.4429 7.53901Z" fill="#FC8289"/>
<path d="M13.6711 5.167C13.1741 5.254 11.9801 5.363 10.5051 4.967C9.02908 4.572 8.04908 3.881 7.66108 3.556C7.11108 3.096 6.87008 2.776 6.63108 3.259C6.42108 3.686 6.15108 4.382 5.89108 5.355C5.32708 7.462 4.90508 11.908 8.39508 12.844C11.8841 13.779 13.7411 9.717 14.3051 7.609C14.5661 6.637 14.6811 5.899 14.7121 5.425C14.7481 4.887 14.3781 5.043 13.6721 5.167M6.66008 6.91C6.66008 6.91 7.21008 6.055 8.14308 6.32C9.07608 6.585 9.14808 7.617 9.14808 7.617L6.66008 6.91ZM8.93708 10.749C7.29708 10.268 7.04308 8.959 7.04308 8.959L11.4511 10.192C11.4511 10.192 10.5611 11.224 8.93708 10.749ZM10.4951 8.058C10.4951 8.058 11.0451 7.204 11.9771 7.47C12.9091 7.735 12.9831 8.767 12.9831 8.767L10.4951 8.058Z" fill="#AEE33E"/>
<path d="M5.5949 9.842L3.9729 10.302C3.9729 10.302 4.1499 9.297 5.3439 8.9L4.4259 5.453L4.3459 5.477C3.2079 5.784 2.2869 5.703 1.9029 5.637C1.3579 5.542 1.0729 5.423 1.0999 5.837C1.1229 6.202 1.2099 6.769 1.4099 7.517C1.8399 9.137 3.2659 12.259 5.9599 11.534L6.0399 11.509L5.5949 9.842ZM2.4429 7.539L4.3579 7.035C4.3579 7.035 4.3019 7.771 3.5839 7.961C2.8659 8.15 2.4429 7.539 2.4429 7.539Z" fill="#F07178"/>
<path d="M9.01008 10.767L8.93708 10.748C7.29608 10.268 7.04308 8.96 7.04308 8.96L9.31608 9.595L10.5191 4.971L10.5041 4.967C9.02808 4.572 8.05008 3.881 7.66108 3.556C7.11108 3.096 6.86908 2.776 6.63108 3.259C6.42108 3.686 6.15108 4.382 5.89108 5.355C5.32708 7.462 4.90508 11.908 8.39508 12.844L8.46608 12.86L9.01008 10.767ZM6.66008 6.91C6.66008 6.91 7.21008 6.055 8.14308 6.32C9.07608 6.585 9.14808 7.617 9.14808 7.617L6.66008 6.91Z" fill="#2ECC71"/>
<path d="M5.67811 9.818L5.24311 9.941C5.34611 10.521 5.52711 11.077 5.81111 11.568C5.86111 11.558 5.91077 11.5467 5.96011 11.534C6.09144 11.4973 6.21544 11.4547 6.33211 11.406C6.01635 10.9224 5.79448 10.3837 5.67811 9.818ZM5.50811 5.738C5.28411 6.572 5.08511 7.773 5.14011 8.978C5.23677 8.93467 5.34277 8.896 5.45811 8.862L5.53811 8.844C5.44011 7.558 5.65211 6.247 5.89111 5.354C5.95244 5.12867 6.01311 4.91867 6.07311 4.724C5.96777 4.79066 5.86039 4.85403 5.75111 4.914C5.67111 5.16267 5.59011 5.43733 5.50811 5.738Z" fill="#C04B41"/>
</svg>

<svg xmlns="http://www.w3.org/2000/svg" width="16" height="16" fill="none"><path fill="#343944" d="M5.458 8.862c-.516.147-.854.403-1.077.66.214-.187.5-.359.885-.468.394-.112.73-.11 1.009-.057v-.218a2.2 2.2 0 0 0-.817.083m-1.1-1.827-1.914.504s.034.05.1.116l1.622-.428s-.023.296-.223.561c.378-.286.415-.753.415-.753m1.602 4.499c-2.694.726-4.119-2.396-4.55-4.017-.2-.748-.287-1.314-.31-1.68a1 1 0 0 1 .001-.1c-.14.01-.206.082-.193.292.024.365.11.932.31 1.68.431 1.62 1.857 4.742 4.55 4.017a2.74 2.74 0 0 0 1.358-.814 2.8 2.8 0 0 1-1.166.622m.506-6.41v.192h1.057q-.032-.1-.065-.191z"/><path fill="#343944" d="M7.76 6.703c.474.135.726.468.859.763l.53.15S9.075 6.586 8.142 6.32c-.873-.248-1.41.485-1.476.58.254-.181.625-.33 1.092-.197m4.217.768c-.874-.25-1.411.486-1.476.58.255-.182.625-.33 1.093-.197.474.136.725.468.858.763l.53.151s-.073-1.032-1.005-1.297m-.527 2.72L7.044 8.96s.048.241.23.555l3.712 1.037c.305-.177.466-.36.466-.36m-3.055 2.653c-3.49-.936-3.068-5.382-2.504-7.49.233-.868.472-1.513.67-1.946-.118-.024-.216.038-.313.235-.21.427-.48 1.122-.74 2.095-.565 2.107-.987 6.553 2.503 7.49 1.645.44 2.927-.23 3.882-1.282-.907.822-2.064 1.282-3.498.898"/><path fill="#FC8289" d="M6.466 10.492v-.898l-2.493.707s.185-1.07 1.485-1.439c.394-.112.73-.11 1.008-.057v-3.68h1.249a7.5 7.5 0 0 0-.378-.969c-.183-.372-.37-.125-.795.23-.3.25-1.056.784-2.195 1.091-1.14.307-2.06.226-2.444.16-.545-.095-.83-.214-.803.2.023.365.11.932.31 1.68.431 1.62 1.857 4.742 4.55 4.017.704-.19 1.2-.565 1.545-1.043zM2.443 7.539l1.915-.504s-.056.736-.774.926c-.718.189-1.14-.422-1.14-.422"/><path fill="#AEE33E" d="M13.671 5.167c-.497.087-1.691.196-3.166-.2-1.476-.395-2.456-1.086-2.844-1.411-.55-.46-.791-.78-1.03-.297-.21.427-.48 1.123-.74 2.096-.564 2.107-.986 6.553 2.504 7.489 3.489.935 5.346-3.127 5.91-5.235.261-.972.376-1.71.407-2.184.036-.538-.334-.382-1.04-.258M6.66 6.91s.55-.855 1.483-.59 1.005 1.297 1.005 1.297zm2.277 3.839c-1.64-.481-1.894-1.79-1.894-1.79l4.408 1.233s-.89 1.031-2.514.556m1.558-2.69s.55-.854 1.482-.588c.932.265 1.006 1.297 1.006 1.297z"/><path fill="#F07178" d="m5.595 9.842-1.622.46S4.15 9.297 5.344 8.9l-.918-3.447-.08.024c-1.138.307-2.059.226-2.443.16-.545-.095-.83-.214-.803.2.023.365.11.932.31 1.68.43 1.62 1.856 4.742 4.55 4.017l.08-.025zM2.443 7.539l1.915-.504s-.056.736-.774.926c-.718.189-1.14-.422-1.14-.422"/><path fill="#2ECC71" d="m9.01 10.767-.073-.019c-1.641-.48-1.894-1.788-1.894-1.788l2.273.635 1.203-4.624-.015-.004C9.028 4.572 8.05 3.881 7.661 3.556c-.55-.46-.792-.78-1.03-.297-.21.427-.48 1.123-.74 2.096-.564 2.107-.986 6.553 2.504 7.489l.071.016zM6.66 6.91s.55-.855 1.483-.59 1.005 1.297 1.005 1.297z"/><path fill="#C04B41" d="m5.678 9.818-.435.123c.103.58.284 1.136.568 1.627q.075-.015.149-.034.197-.055.372-.128a4.6 4.6 0 0 1-.654-1.588m-.17-4.08c-.224.834-.423 2.035-.368 3.24q.145-.065.318-.116l.08-.018c-.098-1.286.114-2.597.353-3.49q.092-.338.182-.63a6 6 0 0 1-.322.19q-.12.373-.243.824"/></svg>
